vivaldi-source/chromium/chrome/browser/resources/tab_search/alert_indicators/tab_audio_rounded.svg

<svg width="16" height="16" viewBox="0 0 16 16" fill="none" xmlns="http://www.w3.org/2000/svg">
<path fill-rule="evenodd" clip-rule="evenodd" d="M9.33333 3.40935V2C12.0067 2.62258 14 5.07184 14 8C14 10.9282 12.0067 13.3774 9.33333 14V12.5906C11.26 12.0023 12.6667 10.1688 12.6667 8C12.6667 5.83124 11.26 3.99772 9.33333 3.40935ZM2 5.94755V10.0525H4.66667L8 13.4732V2.5268L4.66667 5.94755H2ZM11 8C11 6.78905 10.32 5.74914 9.33333 5.24287V10.7503C10.32 10.2509 11 9.21095 11 8Z" fill="black"/>
<mask id="mask0_2440_57228" style="mask-type:alpha" maskUnits="userSpaceOnUse" x="2" y="2" width="12" height="12">
<path fill-rule="evenodd" clip-rule="evenodd" d="M9.33333 3.40935V2C12.0067 2.62258 14 5.07184 14 8C14 10.9282 12.0067 13.3774 9.33333 14V12.5906C11.26 12.0023 12.6667 10.1688 12.6667 8C12.6667 5.83124 11.26 3.99772 9.33333 3.40935ZM2 5.94755V10.0525H4.66667L8 13.4732V2.5268L4.66667 5.94755H2ZM11 8C11 6.78905 10.32 5.74914 9.33333 5.24287V10.7503C10.32 10.2509 11 9.21095 11 8Z" fill="white"/>
</mask>
<g mask="url(#mask0_2440_57228)">
<rect width="16" height="16" fill="black"/>
</g>
</svg>

<svg width="16" height="16" viewBox="0 0 16 16" fill="none" xmlns="http://www.w3.org/2000/svg"><path fill-rule="evenodd" clip-rule="evenodd" d="M9.333 3.41V2C12.007 2.623 14 5.072 14 8s-1.993 5.377-4.667 6v-1.41c1.927-.588 3.334-2.421 3.334-4.59S11.26 3.998 9.333 3.41zM2 5.947v4.104h2.667L8 13.473V2.527l-3.333 3.42H2zM11 8c0-1.211-.68-2.25-1.667-2.757v5.507A3.069 3.069 0 0 0 11 8z" fill="#000"/><mask id="a" style="mask-type:alpha" maskUnits="userSpaceOnUse" x="2" y="2" width="12" height="12"><path fill-rule="evenodd" clip-rule="evenodd" d="M9.333 3.41V2C12.007 2.623 14 5.072 14 8s-1.993 5.377-4.667 6v-1.41c1.927-.588 3.334-2.421 3.334-4.59S11.26 3.998 9.333 3.41zM2 5.947v4.104h2.667L8 13.473V2.527l-3.333 3.42H2zM11 8c0-1.211-.68-2.25-1.667-2.757v5.507A3.069 3.069 0 0 0 11 8z" fill="#fff"/></mask><g mask="url(#a)"><path fill="#000" d="M0 0h16v16H0z"/></g></svg>
